{"type":"map","version":"1.10","tiledversion":"1.10.2","orientation":"orthogonal","renderorder":"right-down","infinite":false,"width":27,"height":15,"tilewidth":48,"tileheight":48,"nextlayerid":6,"nextobjectid":25,"compressionlevel":-1,"properties":[{"name":"music","type":"string","value":"ballard"},{"name":"parallaxSet","type":"string","value":"drain"},{"name":"timeLimit","type":"int","value":0},{"name":"wind","type":"int","value":0},{"name":"autoScroll","type":"int","value":0},{"name":"par","type":"int","value":0},{"name":"name","type":"string","value":"Storm Drain"}],"layers":[{"id":1,"name":"ground","type":"tilelayer","visible":true,"opacity":1,"x":0,"y":0,"width":27,"height":15,"data":[18,18,18,18,18,18,18,18,18,18,18,18,18,18,18,18,18,18,18,18,18,18,18,18,18,18,18,18,0,0,0,0,0,0,0,0,0,0,0,0,0,0,0,0,0,0,0,0,0,0,0,0,0,18,18,0,0,0,0,0,0,0,0,0,0,0,0,0,0,0,0,0,0,0,0,0,0,0,0,0,18,18,0,0,0,0,0,0,0,0,0,0,0,0,0,0,0,0,0,0,0,0,0,0,0,0,0,18,18,0,0,0,0,0,0,0,0,0,0,0,0,0,0,0,0,0,0,0,0,0,0,0,0,0,18,18,0,0,0,0,0,0,0,0,0,0,0,0,0,0,0,0,0,0,0,0,0,0,0,0,0,18,18,0,0,0,0,0,0,0,0,0,0,0,0,0,0,0,0,0,0,0,0,0,0,0,0,0,18,18,0,0,0,0,0,0,0,0,0,0,0,0,0,0,0,0,0,0,0,0,0,0,0,0,0,18,18,0,0,0,0,0,0,0,0,0,0,0,0,0,0,0,0,0,0,0,0,0,0,0,0,0,18,18,0,0,0,0,0,0,0,0,0,0,0,0,0,0,0,0,0,0,0,0,0,0,0,0,0,18,18,0,0,0,0,0,0,0,0,0,0,0,0,0,0,0,0,0,0,0,0,0,0,0,0,0,18,18,0,0,0,0,0,0,0,0,0,0,0,0,0,0,0,0,0,0,0,0,0,0,0,0,0,18,18,0,0,0,0,0,0,0,0,0,0,0,0,0,0,0,0,0,0,0,0,0,0,24,24,0,18,18,4,4,4,4,4,4,4,4,4,4,4,4,4,4,4,4,4,4,4,4,4,4,4,4,4,18,18,18,18,18,18,18,18,18,18,18,18,18,18,18,18,18,18,18,18,18,18,18,18,18,18,18,18]},{"id":2,"name":"oneway","type":"tilelayer","visible":true,"opacity":1,"x":0,"y":0,"width":27,"height":15,"data":[0,0,0,0,0,0,0,0,0,0,0,0,0,0,0,0,0,0,0,0,0,0,0,0,0,0,0,0,0,0,0,0,0,0,0,0,0,0,0,0,0,0,0,0,0,0,0,0,0,0,0,0,0,0,0,0,0,0,0,0,0,0,0,0,0,0,0,0,0,0,0,0,0,0,0,0,0,0,0,0,0,0,0,0,0,0,0,0,0,0,0,0,0,0,0,0,0,0,0,0,0,0,0,0,0,0,0,0,0,0,0,0,0,0,0,0,0,0,0,0,0,0,0,0,0,0,0,0,0,0,0,0,0,0,0,0,0,0,0,0,0,0,0,0,0,0,0,0,0,0,0,0,0,0,0,0,0,0,0,0,0,0,0,0,0,0,0,0,0,0,0,0,0,0,0,0,0,0,0,0,5,5,5,5,0,0,0,0,0,0,0,0,0,0,0,0,0,0,0,0,0,0,0,0,0,0,0,0,0,0,0,0,0,0,0,0,0,0,0,0,0,0,0,0,0,0,0,0,0,0,0,0,0,0,0,0,0,0,0,0,0,0,0,0,0,0,0,0,5,5,5,5,5,5,5,5,5,5,0,0,0,0,0,0,0,0,0,0,0,0,0,0,0,0,0,0,0,0,0,0,0,0,0,0,0,0,0,0,0,0,0,0,0,0,0,0,0,0,0,0,0,0,0,0,0,0,0,0,0,0,0,0,0,0,0,0,0,0,0,0,0,0,0,0,0,0,0,0,0,0,0,0,0,0,0,0,0,0,0,0,0,0,0,0,0,0,0,0,0,0,0,0,0,0,0,0,0,0,0,0,0,0,0,0,0,0,0,0,0,0,0,0,0,0,0,0,0,0,0,0,0,0,0,0,0,0,0,0,0,0,0,0,0,0,0,0,0,0,0,0,0,0,0,0,0]},{"id":3,"name":"decor","type":"tilelayer","visible":true,"opacity":1,"x":0,"y":0,"width":27,"height":15,"data":[0,0,0,0,0,0,0,0,0,0,0,0,0,0,0,0,0,0,0,0,0,0,0,0,0,0,0,0,0,0,0,0,0,0,0,0,0,0,0,0,0,0,0,0,0,0,0,0,0,0,0,0,0,0,0,0,0,0,0,0,0,0,0,0,0,0,0,0,0,0,0,0,0,0,0,0,0,0,0,0,0,0,0,0,0,0,0,0,0,0,0,0,0,0,0,0,0,0,0,0,0,0,0,0,0,0,0,0,0,0,0,0,0,0,0,0,0,0,0,0,0,0,0,0,0,0,0,0,0,0,0,0,0,0,0,0,0,0,0,0,0,0,0,0,0,0,0,0,0,0,0,0,0,0,0,0,0,0,0,0,0,0,0,0,0,0,0,0,0,0,0,0,0,0,0,0,0,0,0,0,0,0,0,0,0,0,0,0,0,0,0,0,0,0,0,0,0,0,0,0,0,0,0,0,0,0,0,0,0,0,0,0,0,0,0,0,0,0,0,0,0,0,0,0,0,0,0,0,0,0,0,0,0,0,0,0,0,0,0,0,0,0,0,0,0,0,0,0,0,0,0,0,0,0,0,0,0,0,0,0,0,0,0,0,0,0,0,0,0,0,0,0,0,0,0,0,0,0,0,0,0,0,0,0,0,0,0,0,0,0,0,0,0,0,0,0,0,0,0,0,0,0,0,0,0,0,0,0,0,0,0,0,0,0,0,0,0,0,0,0,0,0,0,0,0,0,0,25,0,0,0,0,0,0,0,0,0,0,0,0,25,0,0,0,0,0,0,0,0,0,0,0,0,0,0,0,0,0,0,0,0,0,0,0,0,0,0,0,0,0,0,0,0,0,0,0,0,0,0,0,0,0,0,0,0,0,0,0,0,0,0,0,0,0,0,0,0,0,0,0,0,0,0,0,0]},{"id":4,"name":"hazards","type":"tilelayer","visible":true,"opacity":1,"x":0,"y":0,"width":27,"height":15,"data":[0,0,0,0,0,0,0,0,0,0,0,0,0,0,0,0,0,0,0,0,0,0,0,0,0,0,0,0,0,0,0,0,0,0,0,0,0,0,0,0,0,0,0,0,0,0,0,0,0,0,0,0,0,0,0,0,0,0,0,0,0,0,0,0,0,0,0,0,0,0,0,0,0,0,0,0,0,0,0,0,0,0,0,0,0,0,0,0,0,0,0,0,0,0,0,0,0,0,0,0,0,0,0,0,0,0,0,0,0,0,0,0,0,0,0,0,0,0,0,0,0,0,0,0,0,0,0,0,0,0,0,0,0,0,0,0,0,0,0,0,0,0,0,0,0,0,0,0,0,0,0,0,0,0,0,0,0,0,0,0,0,0,0,0,0,0,0,0,0,0,0,0,0,0,0,0,0,0,0,0,0,0,0,0,0,0,0,0,0,0,0,0,0,0,0,0,0,0,0,0,0,0,0,0,0,0,0,0,0,0,0,0,0,0,0,0,0,0,0,0,0,0,0,0,0,0,0,0,0,0,0,0,0,0,0,0,0,0,0,0,0,0,0,0,0,0,0,0,0,0,0,0,0,0,0,0,0,0,0,0,0,0,0,0,0,0,0,0,0,0,0,0,0,0,0,0,0,0,0,0,0,0,0,0,0,0,0,0,0,0,0,0,0,0,0,0,0,0,0,0,0,0,0,0,0,0,0,0,0,0,0,0,0,0,0,0,0,0,0,0,0,0,0,0,0,0,0,0,0,0,0,0,0,0,0,0,0,0,0,0,0,0,0,0,0,0,0,0,0,0,0,0,0,0,0,0,0,0,0,0,0,0,0,0,0,0,0,0,0,0,0,0,0,0,0,0,0,0,0,0,0,0,0,0,0,0,0,0,0,0,0,0,0,0,0,0,0,0,0,0,0,0,0,0,0]},{"id":5,"name":"objects","type":"objectgroup","visible":true,"opacity":1,"x":0,"y":0,"draworder":"topdown","objects":[{"id":1,"name":"bonus_in","type":"player_spawn","visible":true,"rotation":0,"x":96,"y":528,"width":48,"height":48,"properties":[]},{"id":2,"name":"","type":"latte","visible":true,"rotation":0,"x":240,"y":528,"width":48,"height":48,"properties":[]},{"id":3,"name":"","type":"latte","visible":true,"rotation":0,"x":288,"y":528,"width":48,"height":48,"properties":[]},{"id":4,"name":"","type":"latte","visible":true,"rotation":0,"x":336,"y":528,"width":48,"height":48,"properties":[]},{"id":5,"name":"","type":"latte","visible":true,"rotation":0,"x":384,"y":528,"width":48,"height":48,"properties":[]},{"id":6,"name":"","type":"latte","visible":true,"rotation":0,"x":432,"y":528,"width":48,"height":48,"properties":[]},{"id":7,"name":"","type":"latte","visible":true,"rotation":0,"x":480,"y":528,"width":48,"height":48,"properties":[]},{"id":8,"name":"","type":"latte","visible":true,"rotation":0,"x":528,"y":528,"width":48,"height":48,"properties":[]},{"id":9,"name":"","type":"latte","visible":true,"rotation":0,"x":576,"y":528,"width":48,"height":48,"properties":[]},{"id":10,"name":"","type":"latte","visible":true,"rotation":0,"x":624,"y":528,"width":48,"height":48,"properties":[]},{"id":11,"name":"","type":"latte","visible":true,"rotation":0,"x":672,"y":528,"width":48,"height":48,"properties":[]},{"id":12,"name":"","type":"latte","visible":true,"rotation":0,"x":240,"y":384,"width":48,"height":48,"properties":[]},{"id":13,"name":"","type":"latte","visible":true,"rotation":0,"x":288,"y":384,"width":48,"height":48,"properties":[]},{"id":14,"name":"","type":"latte","visible":true,"rotation":0,"x":336,"y":384,"width":48,"height":48,"properties":[]},{"id":15,"name":"","type":"latte","visible":true,"rotation":0,"x":384,"y":384,"width":48,"height":48,"properties":[]},{"id":16,"name":"","type":"latte","visible":true,"rotation":0,"x":432,"y":384,"width":48,"height":48,"properties":[]},{"id":17,"name":"","type":"latte","visible":true,"rotation":0,"x":480,"y":384,"width":48,"height":48,"properties":[]},{"id":18,"name":"","type":"latte","visible":true,"rotation":0,"x":528,"y":384,"width":48,"height":48,"properties":[]},{"id":19,"name":"","type":"latte","visible":true,"rotation":0,"x":576,"y":384,"width":48,"height":48,"properties":[]},{"id":20,"name":"","type":"latte","visible":true,"rotation":0,"x":624,"y":384,"width":48,"height":48,"properties":[]},{"id":21,"name":"","type":"latte","visible":true,"rotation":0,"x":672,"y":384,"width":48,"height":48,"properties":[]},{"id":22,"name":"","type":"geoduck","visible":true,"rotation":0,"x":912,"y":240,"width":48,"height":48,"properties":[{"name":"index","type":"int","value":1}]},{"id":23,"name":"","type":"drain","visible":true,"rotation":0,"x":1104,"y":576,"width":96,"height":48,"properties":[{"name":"targetLevel","type":"string","value":"1-1"},{"name":"targetSpawn","type":"string","value":"drain_out"}]},{"id":24,"name":"","type":"sign","visible":true,"rotation":0,"x":1056,"y":432,"width":96,"height":96,"properties":[{"name":"text","type":"string","value":"EXIT ↓"}]}]}],"tilesets":[{"firstgid":1,"name":"ballard","tilewidth":48,"tileheight":48,"margin":2,"spacing":4,"columns":8,"tilecount":32,"image":"../tilesets/ballard.png","imagewidth":416,"imageheight":208,"tiles":[{"id":4,"properties":[{"name":"oneway","type":"bool","value":true}]},{"id":5,"properties":[{"name":"oneway","type":"bool","value":true}]},{"id":6,"properties":[{"name":"oneway","type":"bool","value":true}]},{"id":7,"properties":[{"name":"oneway","type":"bool","value":true}]},{"id":18,"properties":[{"name":"oneway","type":"bool","value":true}]},{"id":28,"properties":[{"name":"oneway","type":"bool","value":true}]},{"id":15,"properties":[{"name":"hazard","type":"string","value":"pothole"}]}]}]}